build/img/termo.svg

<svg width="32" height="32" viewBox="0 0 32 32" fill="none" xmlns="http://www.w3.org/2000/svg">
<path d="M25.7403 3.89325C25.6448 3.85508 23.431 2.86268 21.7707 4.4467C21.5417 4.65663 21.5226 5.01923 21.7516 5.24825C21.8661 5.36276 22.0188 5.42001 22.1715 5.42001C22.3051 5.42001 22.4577 5.36275 22.5722 5.26733C23.6791 4.21768 25.2059 4.90473 25.2822 4.92381C25.5685 5.0574 25.912 4.92381 26.0456 4.63754C26.1601 4.37036 26.0265 4.02684 25.7403 3.89325Z" fill="white"/>
<path d="M29.8625 2.8436L29.1373 2.11838C27.7632 0.763382 25.9502 0 24.0036 0C22.057 0 20.2439 0.763382 18.8698 2.13747L3.81214 17.1952L4.25108 24.3519C4.232 24.371 4.21291 24.39 4.19383 24.4091L0.701357 27.8825C-0.233786 28.8177 -0.233786 30.3444 0.701357 31.2986C1.6365 32.2338 3.16326 32.2338 4.11749 31.2986L7.59087 27.8253C7.60996 27.8062 7.62904 27.7871 7.64813 27.768L14.8048 28.2069L29.8625 13.1492C31.2366 11.7752 32 9.94304 32 8.01551C32 6.0498 31.2366 4.21768 29.8625 2.8436ZM28.2403 11.508L13.9079 25.8405L8.20158 25.4969C8.10616 25.0962 7.89623 24.7145 7.57179 24.4091C7.26644 24.1038 6.88475 23.8938 6.48397 23.7793L6.14045 18.0731L8.83137 15.3821L9.86193 16.4127C9.97644 16.5272 10.1291 16.5845 10.2627 16.5845C10.4154 16.5845 10.549 16.5272 10.6635 16.4127C10.8925 16.1837 10.8925 15.8211 10.6635 15.6112L9.63292 14.5806L11.7322 12.4813L12.7628 13.5119C12.8773 13.6264 13.03 13.6836 13.1636 13.6836C13.2972 13.6836 13.4498 13.6264 13.5643 13.5119C13.7933 13.2828 13.7933 12.9202 13.5643 12.7103L12.5338 11.6797L14.6331 9.58044L15.6636 10.611C15.7781 10.7255 15.9308 10.7828 16.0644 10.7828C16.198 10.7828 16.3507 10.7255 16.4652 10.611C16.6942 10.382 16.6942 10.0194 16.4652 9.80945L15.4346 8.77889L17.5339 6.67959L18.5645 7.71015C18.679 7.82466 18.8317 7.88191 18.9653 7.88191C19.1179 7.88191 19.2515 7.82466 19.366 7.71015C19.595 7.48114 19.595 7.11853 19.366 6.9086L18.3355 5.87804L20.4348 3.77874C21.3699 2.8436 22.6295 2.32831 23.9463 2.32831C25.2822 2.32831 26.5227 2.8436 27.4579 3.77874L28.1831 4.50395C29.1182 5.43909 29.6335 6.69867 29.6335 8.01551C29.7099 9.31326 29.1946 10.5728 28.2403 11.508Z" fill="white"/>
<path d="M22.3432 8.83614L11.7704 19.409C11.5414 19.638 11.5414 20.0006 11.7704 20.2105C11.8849 20.325 12.0376 20.3823 12.1712 20.3823C12.3238 20.3823 12.4574 20.325 12.5719 20.2105L23.1448 9.63769C23.3738 9.40868 23.3738 9.04607 23.1448 8.83614C22.9348 8.60713 22.5722 8.60713 22.3432 8.83614Z" fill="white"/>
</svg>

<svg width="32" height="32" fill="none" xmlns="http://www.w3.org/2000/svg"><path d="M25.74 3.893c-.095-.038-2.309-1.03-3.97.554a.553.553 0 00-.018.801.592.592 0 00.42.172.656.656 0 00.4-.153c1.107-1.05 2.634-.362 2.71-.343a.58.58 0 00.764-.286c.114-.268-.02-.611-.306-.745z" fill="#fff"/><path d="M29.863 2.844l-.726-.726A7.265 7.265 0 0024.004 0c-1.947 0-3.76.763-5.134 2.137L3.812 17.195l.44 7.157-.058.057L.7 27.883c-.935.935-.935 2.461 0 3.416.936.935 2.462.935 3.416 0l3.474-3.474.057-.057 7.157.439 15.058-15.058A7.236 7.236 0 0032 8.016a7.259 7.259 0 00-2.137-5.172zm-1.623 8.664L13.908 25.84l-5.706-.343a2.187 2.187 0 00-.63-1.088 2.513 2.513 0 00-1.088-.63l-.344-5.706 2.691-2.69 1.03 1.03a.582.582 0 00.402.171.55.55 0 00.4-.171.553.553 0 000-.802l-1.03-1.03 2.1-2.1 1.03 1.03a.582.582 0 00.4.173.582.582 0 00.401-.172.553.553 0 000-.802l-1.03-1.03 2.1-2.1 1.03 1.031a.582.582 0 00.4.172.582.582 0 00.401-.172.553.553 0 000-.802l-1.03-1.03 2.099-2.1 1.03 1.031a.582.582 0 00.401.172.55.55 0 00.401-.172.553.553 0 000-.801l-1.03-1.031 2.099-2.1a4.953 4.953 0 013.511-1.45 4.92 4.92 0 013.512 1.45l.725.726a4.953 4.953 0 011.45 3.512c.077 1.297-.438 2.557-1.393 3.492z" fill="#fff"/><path d="M22.343 8.836L11.77 19.41a.553.553 0 000 .802.582.582 0 00.401.171.55.55 0 00.4-.172L23.146 9.639a.553.553 0 000-.802.553.553 0 00-.802 0z" fill="#fff"/></svg>
